src/assets/img/musica_g.svg

<svg fill="none" viewBox="0 0 150 200" xmlns="http://www.w3.org/2000/svg"><path clip-rule="evenodd" d="m122.299 148.411v14.317c0 4.147-3.362 7.509-7.509 7.509h-79.2809c-4.1473 0-7.5091-3.362-7.5091-7.509v-14.317h9.4375l.3583-.509-8.2156-11.926 8.2311-11.948-8.2312-11.947 8.2314-11.948-8.2307-11.9498 8.2312-11.9555-8.231-11.9505 8.2166-11.9379-.3609-.5136h-9.4367v-14.3166c0-4.1473 3.3618-7.5091 7.5091-7.5091h79.2809c4.147 0 7.509 3.3618 7.509 7.5091v14.3166h-9.439l-.357.5071 8.215 11.9263-8.231 11.9478 8.232 11.9472-8.232 11.9479 8.231 11.95-8.231 11.955 8.231 11.951-8.217 11.937.362.516zm-18.554-96.5853-.325.4616 8.247 11.9716-8.232 11.9482 8.232 11.947-8.231 11.9469 8.231 11.951-8.231 11.956 8.232 11.951-8.246 11.981.331.471h-57.2005l.3263-.463-8.2469-11.972 8.2314-11.948-8.2312-11.947 8.231-11.947-8.2317-11.9516 8.2312-11.9555-8.2315-11.9512 8.2459-11.9805-.33-.4695z" fill="#fff" fill-rule="evenodd"/></svg>

<svg viewBox="0 0 150 200" fill="none" xmlns="http://www.w3.org/2000/svg">
<path fill-rule="evenodd" clip-rule="evenodd" d="M122.299 148.411V162.728C122.299 166.875 118.937 170.237 114.79 170.237H35.5091C31.3618 170.237 28 166.875 28 162.728V148.411H37.4375L37.7958 147.902L29.5802 135.976L37.8113 124.028L29.5801 112.081L37.8115 100.133L29.5808 88.1832L37.812 76.2277L29.581 64.2772L37.7976 52.3393L37.4367 51.8257H28V37.5091C28 33.3618 31.3618 30 35.5091 30H114.79C118.937 30 122.299 33.3618 122.299 37.5091V51.8257H112.86L112.503 52.3328L120.718 64.2591L112.487 76.2069L120.719 88.1541L112.487 100.102L120.718 112.052L112.487 124.007L120.718 135.958L112.501 147.895L112.863 148.411H122.299ZM103.745 51.8257L103.42 52.2873L111.667 64.2589L103.435 76.2071L111.667 88.1541L103.436 100.101L111.667 112.052L103.436 124.008L111.668 135.959L103.422 147.94L103.753 148.411H46.5525L46.8788 147.948L38.6319 135.976L46.8633 124.028L38.6321 112.081L46.8631 100.134L38.6314 88.1824L46.8626 76.2269L38.6311 64.2757L46.877 52.2952L46.547 51.8257H103.745Z" fill="white"/>
</svg>
